projects/cni/icon/color/cni-icon-color.svg

<svg xmlns="http://www.w3.org/2000/svg" role="img" viewBox="8.14 0.64 198.21 213.46"><style>svg {enable-background:new 0 0 216 216}</style><style/><path fill="#00b0ad" d="M163.4 46.3l-.8-.5-55.8-40.6-93.5 70.2 17.8 13.1 76.7 56 93.6-70.3-38-27.9zM38.8 62.1l50.4-37.9 14 10.2-50.4 38-14-10.3zm82.7 39.8l-13.9 10.4-50.8-37.1 50.4-37.8 32.8 24-36.5 27.4 18 13.1zm22.4-37.7l14 10.2L125.4 99l-14-10.2 32.5-24.6zm20.7 11.3l.9-.8.3-.2-18-13.1L161.7 51l32 23.3-50.4 37.9-13.9-10.2 35.2-26.5zm-20.7-17.1L93.1 21.3l13.8-10.4L157.7 48l-13.8 10.4zM34.9 65l14 10.2-13.8 10.4-14-10.3L34.9 65zm18 13.2l50.9 37.2L90 125.7 39.1 88.5l13.8-10.3zm72.6 26.6l13.9 10.2-31.6 23.7-13.9-10.2 31.6-23.7z"/><linearGradient id="SVGID_1_" x1="334.519" x2="334.519" y1="-293.069" y2="-92.05" gradientTransform="matrix(1 0 0 -1 -227.1 -26.74)" gradientUnits="userSpaceOnUse"><stop offset="0" stop-color="#d1e1d7"/><stop offset="1" stop-color="#00b0ad"/></linearGradient><path fill="url(#SVGID_1_)" d="M107.4 210.2c-.5 0-1-.2-1.5-.5l-92.1-66c-1.7-1.5-2-4.1-.5-5.8l.5-.5 46-33 2.9 6.3-41.6 29.8 86.2 61.8 86.2-61.8-41.5-29.8 2.9-6.3 46 33c1.7 1.5 2 4.1.5 5.8l-.5.5-92.1 66c-.3.3-.9.5-1.4.5z"/><linearGradient id="SVGID_2_" x1="334.519" x2="334.519" y1="-293.069" y2="-92.05" gradientTransform="matrix(1 0 0 -1 -227.1 -26.74)" gradientUnits="userSpaceOnUse"><stop offset="0" stop-color="#d1e1d7"/><stop offset="1" stop-color="#00b0ad"/></linearGradient><path fill="url(#SVGID_2_)" d="M107.4 144.2c-.5 0-1-.2-1.5-.5l-92.1-66c-1.7-1.5-2-4.1-.5-5.8l.5-.5 92.1-66c.9-.7 2.1-.7 2.9 0l92.1 66c1.7 1.5 2 4.1.5 5.8l-.5.5-92.1 66c-.3.3-.9.5-1.4.5zM21.3 74.6l86.2 61.8 86.2-61.8-86.2-61.8-86.2 61.8z"/><linearGradient id="SVGID_3_" x1="15.362" x2="15.362" y1="-49.218" y2="151.801" gradientTransform="matrix(1 0 0 -1 0 217.1)" gradientUnits="userSpaceOnUse"><stop offset="0" stop-color="#d1e1d7"/><stop offset="1" stop-color="#00b0ad"/></linearGradient><path fill="url(#SVGID_3_)" d="M12.4 74.6h5.9v66h-5.9z"/></svg>

<?xml version="1.0" encoding="utf-8"?>
<!-- Generator: Adobe Illustrator 21.1.0, SVG Export Plug-In . SVG Version: 6.00 Build 0)  -->
<svg version="1.1" id="Layer_1" xmlns="http://www.w3.org/2000/svg" xmlns:xlink="http://www.w3.org/1999/xlink" x="0px" y="0px"
	 viewBox="0 0 216 216" style="enable-background:new 0 0 216 216;" xml:space="preserve">
<style type="text/css">
	.st0{fill:#00B0AD;}
	.st1{fill:url(#SVGID_1_);}
	.st2{fill:url(#SVGID_2_);}
	.st3{fill:url(#SVGID_3_);}
	.st4{fill:url(#SVGID_4_);}
</style>
<path class="st0" d="M163.4,46.3l-0.8-0.5L106.8,5.2L13.3,75.4l17.8,13.1l0,0l76.7,56l93.6-70.3L163.4,46.3z M38.8,62.1l50.4-37.9
	l14,10.2L52.8,72.4L38.8,62.1z M121.5,101.9l-13.9,10.4L56.8,75.2l50.4-37.8l32.8,24l-36.5,27.4L121.5,101.9z M143.9,64.2l14,10.2
	L125.4,99l-14-10.2L143.9,64.2z M164.6,75.5l0.9-0.8l0.3-0.2l-18-13.1l13.9-10.4l32,23.3l-50.4,37.9l-13.9-10.2L164.6,75.5z
	 M143.9,58.4L93.1,21.3l13.8-10.4l50.8,37.1L143.9,58.4z M34.9,65l14,10.2L35.1,85.6l-14-10.3L34.9,65z M52.9,78.2l50.9,37.2
	L90,125.7L39.1,88.5L52.9,78.2z M125.5,104.8l13.9,10.2l-31.6,23.7l-13.9-10.2L125.5,104.8z"/>
<linearGradient id="SVGID_1_" gradientUnits="userSpaceOnUse" x1="334.5185" y1="-293.0691" x2="334.5185" y2="-92.0505" gradientTransform="matrix(1 0 0 -1 -227.1 -26.74)">
	<stop  offset="0" style="stop-color:#D1E1D7"/>
	<stop  offset="1" style="stop-color:#00B0AD"/>
</linearGradient>
<path class="st1" d="M107.4,210.2c-0.5,0-1-0.2-1.5-0.5l-92.1-66c-1.7-1.5-2-4.1-0.5-5.8c0.2-0.2,0.3-0.3,0.5-0.5l46-33l2.9,6.3
	l-41.6,29.8l86.2,61.8l86.2-61.8L152,110.7l2.9-6.3l46,33c1.7,1.5,2,4.1,0.5,5.8c-0.2,0.2-0.3,0.3-0.5,0.5l-92.1,66
	C108.5,210,107.9,210.2,107.4,210.2z"/>
<linearGradient id="SVGID_2_" gradientUnits="userSpaceOnUse" x1="334.5185" y1="-293.0691" x2="334.5185" y2="-92.0505" gradientTransform="matrix(1 0 0 -1 -227.1 -26.74)">
	<stop  offset="0" style="stop-color:#D1E1D7"/>
	<stop  offset="1" style="stop-color:#00B0AD"/>
</linearGradient>
<path class="st2" d="M107.4,144.2c-0.5,0-1-0.2-1.5-0.5l-92.1-66c-1.7-1.5-2-4.1-0.5-5.8c0.2-0.2,0.3-0.3,0.5-0.5l92.1-66
	c0.9-0.7,2.1-0.7,2.9,0l92.1,66c1.7,1.5,2,4.1,0.5,5.8c-0.2,0.2-0.3,0.3-0.5,0.5l-92.1,66C108.5,144,107.9,144.2,107.4,144.2z
	 M21.3,74.6l86.2,61.8l86.2-61.8l-86.2-61.8L21.3,74.6z"/>
<linearGradient id="SVGID_3_" gradientUnits="userSpaceOnUse" x1="15.3622" y1="-49.218" x2="15.3622" y2="151.8006" gradientTransform="matrix(1 0 0 -1 0 217.1)">
	<stop  offset="0" style="stop-color:#D1E1D7"/>
	<stop  offset="1" style="stop-color:#00B0AD"/>
</linearGradient>
<rect x="12.4" y="74.6" class="st3" width="5.9" height="66"/>
</svg>
